!!!COM: Bach, Johann Sebastian
!!!CDT: 1685/3//-1750/7/28/
!!!OTL@@DE: Liebster Jesu, wir sind hier
!!!AGN: 4-Part Chorale
!!!SCT: BH 328
!!!SCT: BWV 373
**harm	**root	**kern	**kern	**kern	**kern
!	!	!bass	!tenor	!alto	!soprno
*	*Iorgan	*Iorgan	*Iorgan	*Iorgan	*Iorgan
*M4/4	*M4/4	*M4/4	*M4/4	*M4/4	*M4/4
*met(c)	*met(c)	*met(c)	*met(c)	*met(c)	*met(c)
*MM60	*MM60	*MM60	*MM60	*MM60	*MM60
*k[b-e-]	*k[b-e-]	*k[b-e-]	*k[b-e-]	*k[b-e-]	*k[b-e-]
*B-:	*B-:	*B-:	*B-:	*B-:	*B-:
*>[A,A,B]	*>[A,A,B]	*>[A,A,B]	*>[A,A,B]	*>[A,A,B]	*>[A,A,B]
*>A	*>A	*>A	*>A	*>A	*>A
=1-	=1-	=1-	=1-	=1-	=1-
I	4GG	4BB-	8B-	4f	4dd
.	.	.	8c	.	.
I	4GG	[4B-	4d	4f	8cc
.	.	.	.	.	8b-
Vb	4DD	8B-]	4c	4f	4cc
.	.	8A	.	.	.
V	4DD	8G	4c	4a	4ff
.	.	8F	.	.	.
=2	=2	=2	=2	=2	=2
I	4GG	8B-	8d	4f	4dd
.	.	8c	8e-	.	.
Ib	4GG	8d	4f	8f	4b-
.	.	8B-	.	8g	.
V;	2DD;	2F;	2f;	2a;	2cc;
=3	=3	=3	=3	=3	=3
vi	4EE	8GG	4d	4g	4b-
.	.	4G	.	.	.
V7c/IV	4GG	.	4d	4a-	4b-
.	.	8F	.	.	.
IV	4CC	8EE-	4e-	4g	4b-
.	.	4E-	.	.	.
Ib	4GG	.	4B-	4f	4b-
.	.	8D	.	.	.
=4	=4	=4	=4	=4	=4
ii	4AA	4C	4e-	8g	4cc
.	.	.	.	8ay	.
I	4GG	8BB-	4f	4b-	4dd
.	.	8D	.	.	.
ii7b	4AA	8E-	8g	4b-	2cc
.	.	8C	8e-	.	.
V	4DD	4F	8c	4a	.
.	.	.	16f	.	.
.	.	.	16e-	.	.
=5	=5	=5	=5	=5	=5
I;	1GG;	1BB-;	1d;	1f;	1b-;
*>B	*>B	*>B	*>B	*>B	*>B
!!linebreak: 2
=6:|!	=6:|!	=6:|!	=6:|!	=6:|!	=6:|!
I	4GG	8BB-	4B-	4d	4f
.	.	4B-	.	.	.
Vb	4DD	.	4c	4c	4f
.	.	8A	.	.	.
viiob/V	4CC#	4G	4B-	8d	4g
.	.	.	.	8e	.
V	4DD	[4F	4c	4f	4a
=7	=7	=7	=7	=7	=7
vi7d	4EE	4F]	4d	4g	4b-
Vb/V	4AA	4E	4c	4g	8cc
.	.	.	.	.	8b-
V	4DD	4F	8c	4f	8a
.	.	.	8B-	.	8g
V;	4DD;	4F;	4A;	4c;	4f;
=8	=8	=8	=8	=8	=8
Ib	4GG	8D	4.B-	8f	4b-
.	.	8BB-	.	8d	.
ii7	8AA	8C	.	8e-	4b-
V7b/IV	8GG	8D	8A-	8f	.
IV	4CC	8E-	8G	4g	4b-
.	.	8F	8A	.	.
IV	4CC	8E-	8B-	4g	4b-
.	.	8D	16c	.	.
.	.	.	16d	.	.
=9	=9	=9	=9	=9	=9
ii	4AA	4C	4e-	8g	4cc
.	.	.	.	8a	.
I	4GG	4BB-	4f	[4b-	4dd
V	2DD	2F	4.f	8b-]	2cc
.	.	.	.	8g	.
.	.	.	.	4a	.
.	.	.	8e-	.	.
=10	=10	=10	=10	=10	=10
I;	1GG;	1BB-;	1d;	1f;	1b-;
==	==	==	==	==	==
*-	*-	*-	*-	*-	*-
!!chor2scor: -l 2 -s 0.6 -o %b.pmx
!!!YEC: Copyright 1994, David Huron
!!!YEC: Changes/Additions 2001 by Craig Stuart Sapp
!!!YEN: United States of America
!!!SMA: 371 Bach Chorales, edited by Ludwig Erk, C.F. Peters
!!!PDT: 1850, 1865
!!!ONB: Harmony and Root analysis done manually
